X: 1
T: Rare
C: Keith Murphy 2001
R: reel
Z: 2010 John Chambers <jc:trillian.mit.edu>
B: Portland Collection v.2 p.166
M: C|
L: 1/8
K: D
|: "D"D2FD EDEF | ABAF EDB,D | "G"G,2G,A, B,DED | "A7"A,G,A,B, CDEC |
| "D"D2FD EDEF | ABAF EDB,D | "G"G,2G,A, B,DED | "A7"CDEC [1 "D"DA,B,D :|[2 "D"DEFA ||
| "D"effe dcBA | "G"B2BA GFED | "A7"E2CE A,ECE | A,B,CD EFGE |
| "D"D2fe dcBA | "G"B2BA GFED | "A7"E2CE A,ECE | CDEC [1 "D"DEFA :|2 "D"DA,B,D |]
